X:7879
T:Die Forelle
N: Transposed
C:Franz Schubert
O:Austria
Z:Transcribed by Frank Nordberg - http://www.musicaviva.com
F:http://abc.musicaviva.com/tunes/schubert-franz/schubert-forelle-1.abc
M:C|
L:1/8
Q:1/2=160
K:G
D2|"G"G2G2B2B2|"G"G4D2D2|"D"D3D AGFE|"D"D4 z2D2|
"G"G2G2 B2B2|"G"G4D2G2|"D"F2EF "A7"G2^C2|"D"D4 z2D2|
"D7"F3F GFEF|"G"G4D2G2|"D7"F3F FcAF|"G"G4 z2z2|
"C"E2E2E2G2|"G"G4D2D2|"D7"D3D A2F2|"G"G4 z2G2|
"C"FEE2 EGFA|"G"G4D2D2|"D7"D3DA2F2|"G"G4z2|]

